X:40
T:Captain Wake. RHu.040
T:Captain White,aka. RHu.040
S:R.Hughes MS,1823,Whitchurch,Shrops.
A:Whitchurch, Shropshire
Z:Neil Brookes 2006
M:6/8
L:1/8
Q:3/8=120
R:Jig
K:G
D|GBd g2b|agf e2g|d2gB2d|cBc A2B|!
GBd g2b|agf e2g|d2gB2d|def “dcr in MS”g2::!
b|aga d2b|agad’2b|a2g fge|edd d2b|!
aga d2b|agad’2b|a2g f2e|d2c B2A|!
G2b bab|g2d dBd|G2b bab|c’bc’ a^ga|!
G2b bab|g2d dBd|efg aba|fed “D.C.”cBA:|

